icons/chat-message.svg

<svg width="24" height="24" viewBox="0 0 24 24" fill="none" xmlns="http://www.w3.org/2000/svg">
<path fill-rule="evenodd" clip-rule="evenodd" d="M2 4C2 3.44772 2.44772 3 3 3H21C21.5523 3 22 3.44772 22 4V18C22 18.5523 21.5523 19 21 19H6.41421L3.70711 21.7071C3.42111 21.9931 2.99099 22.0787 2.61732 21.9239C2.24364 21.7691 2 21.4045 2 21V4ZM4 5V18.5858L5.29289 17.2929C5.48043 17.1054 5.73478 17 6 17H20V5H4ZM8 11C8 10.4477 8.44772 10 9 10H15C15.5523 10 16 10.4477 16 11C16 11.5523 15.5523 12 15 12H9C8.44772 12 8 11.5523 8 11Z" fill="black"/>
</svg>

<svg
  width="24"
  height="24"
  viewBox="0 0 24 24"
  xmlns="http://www.w3.org/2000/svg"
>
  <path
    fill-rule="evenodd"
    clip-rule="evenodd"
    d="M2 4a1 1 0 0 1 1-1h18a1 1 0 0 1 1 1v14a1 1 0 0 1-1 1H6.414l-2.707 2.707A1 1 0 0 1 2 21V4zm2 1v13.586l1.293-1.293A1 1 0 0 1 6 17h14V5H4zm4 6a1 1 0 0 1 1-1h6a1 1 0 1 1 0 2H9a1 1 0 0 1-1-1z"
  />
</svg>
